Obsidian/actions/24s/view-sort.svg

<svg height="24" width="24" xmlns="http://www.w3.org/2000/svg"><path d="m15 5-3 4h2v3h2v-3h2zm-8.5 1a1.5 1.5 0 0 0 -1.5 1.5 1.5 1.5 0 0 0 1.5 1.5 1.5 1.5 0 0 0 1.5-1.5 1.5 1.5 0 0 0 -1.5-1.5zm0 4a1.5 1.5 0 0 0 -1.5 1.5 1.5 1.5 0 0 0 1.5 1.5 1.5 1.5 0 0 0 1.5-1.5 1.5 1.5 0 0 0 -1.5-1.5zm4.5 1v3h-2l3 4 3-4h-2v-3zm-4.5 3a1.5 1.5 0 0 0 -1.5 1.5 1.5 1.5 0 0 0 1.5 1.5 1.5 1.5 0 0 0 1.5-1.5 1.5 1.5 0 0 0 -1.5-1.5z" fill="#bebebe"/></svg>

<svg xmlns="http://www.w3.org/2000/svg" width="24" height="24" version="1.1">
 <defs>
  <style id="current-color-scheme" type="text/css">
   .ColorScheme-Text { color:#bebebe; } .ColorScheme-Highlight { color:#4285f4; }
  </style>
 </defs>
 <path style="fill:currentColor" class="ColorScheme-Text" d="m 15,5 -3,4 h 2 v 3 h 2 V 9 h 2 z M 6.5,6 A 1.5,1.5 0 0 0 5,7.5 1.5,1.5 0 0 0 6.5,9 1.5,1.5 0 0 0 8,7.5 1.5,1.5 0 0 0 6.5,6 Z m 0,4 A 1.5,1.5 0 0 0 5,11.5 1.5,1.5 0 0 0 6.5,13 1.5,1.5 0 0 0 8,11.5 1.5,1.5 0 0 0 6.5,10 Z m 4.5,1 v 3 H 9 l 3,4 3,-4 H 13 V 11 Z M 6.5,14 A 1.5,1.5 0 0 0 5,15.5 1.5,1.5 0 0 0 6.5,17 1.5,1.5 0 0 0 8,15.5 1.5,1.5 0 0 0 6.5,14 Z"/>
</svg>
